!!!OTL: 1105. Luegenlied.
!!!ARE: Europa, Mitteleuropa, Deutschland, Pommern, Stralsund; Greifswald
!!!SCT: E1105
!!!TXL: @@DE
!!!YEM: Copyright 1995, estate of Helmut Schaffrath.
**kern	**text
*ICvox	*
*M6/8	*
*k[f#]	*
*G:	*
!LO:TX:a:t=Munter.	!
!LO:TX:a:t=Aus Pommern.	!
{8d	Jch
=1	=1
8d	will
8g	euch
8g	er-
(8g	-ʒäh-
8b/)	-len
8b/	und
=2	=2
(8b/	will
8a)	auch
8a	nicht
4a}	lügen
{8d	ich
=3	=3
8d	ſah'n
8a	Paar
8a	ge-
(<8a	-bra-
8cc)	-te-
8cc	-ne
=4	=4
4cc	Och-
8b	-ſen
4b;}	fliegen;
{8b	die
=5	=5
4.b	flo-
4dd	-gen
8a	von
=6	=6
4.b/	fer-
4a}	-ne;
{8g	ſie
=7	=7
8dd	hat-
8dd	-ten
8dd	den
(8dd	Rük-
8ee)	-ken
8dd	ʒur
=8	=8
(8dd	Er-
8cc)	-de
8cc	ge-
4cc}	-kehrt,
{8dd	den
=9	=9
4b	Bauch
8b	wol
8dd	ge-
8cc	-gen
8f#	die
=10	=10
4.a	Ster-
4g}	-ne.
!LO:TX:a:t=Chor.	!
{8d	Hei-
=11	=11
8.b/	-du-
16a	-del-
8b/	-dum-
4g	-dei,
8d	hei-
=12	=12
8.b/	-du-
16a	-del-
8b/	-dum-
4g}	-dei!
{8dd	den
=13	=13
4b	Bauch
8g	wol
(8dd	ge-
8cc)	-gen
8f#	die
=14	=14
4.a	Ster-
4g}	-ne.
==	==
!!!AGN: Wunsch - Lied, Luegen - Maerchen
!!!ONB: ESAC (Essen Associative Code) Database: ERK3
!!!AMT: compound duple
!!!AIN: vox
!!!EED: Helmut Schaffrath
!!!EEV: 1.0
!!!GTL: Raethsel-, Wett- und Wunschlieder, nebst Luegenmaerchen.
!!!URL-scan: https://rosdok.uni-rostock.de/mcrviewer/recordIdentifier/rosdok_ppn745177999/iview2/phys_0052.iview2?x=188.1684953369795&y=1185.8598183681897&scale=0.701185927818147&rotation=0&layout=singlePageLayout
!!!ENC: Anna Maria Matuszewska
!!!EEV: 2024/12/23
*-	*-
